svgs/light/tree-city.svg

<svg xmlns="http://www.w3.org/2000/svg" viewBox="0 0 640 512"><!--! Font Awesome Pro 6.4.2 by @fontawesome - https://fontawesome.com License - https://fontawesome.com/license (Commercial License) Copyright 2023 Fonticons, Inc. --><path d="M336 32c-8.8 0-16 7.2-16 16V496c0 8.8-7.2 16-16 16s-16-7.2-16-16V48c0-26.5 21.5-48 48-48H464c26.5 0 48 21.5 48 48V192h32V112c0-8.8 7.2-16 16-16s16 7.2 16 16v80h16c26.5 0 48 21.5 48 48V496c0 8.8-7.2 16-16 16s-16-7.2-16-16V240c0-8.8-7.2-16-16-16H560 496c-8.8 0-16-7.2-16-16V48c0-8.8-7.2-16-16-16H336zm48 32h32c17.7 0 32 14.3 32 32v32c0 17.7-14.3 32-32 32H384c-17.7 0-32-14.3-32-32V96c0-17.7 14.3-32 32-32zm0 32v32h32V96H384zm96 192c0-17.7 14.3-32 32-32h32c17.7 0 32 14.3 32 32v32c0 17.7-14.3 32-32 32H512c-17.7 0-32-14.3-32-32V288zm64 0H512v32h32V288zm-32 96h32c17.7 0 32 14.3 32 32v32c0 17.7-14.3 32-32 32H512c-17.7 0-32-14.3-32-32V416c0-17.7 14.3-32 32-32zm0 32v32h32V416H512zM352 224c0-17.7 14.3-32 32-32h32c17.7 0 32 14.3 32 32v32c0 17.7-14.3 32-32 32H384c-17.7 0-32-14.3-32-32V224zm64 0H384v32h32V224zm-32 96h32c17.7 0 32 14.3 32 32v32c0 17.7-14.3 32-32 32H384c-17.7 0-32-14.3-32-32V352c0-17.7 14.3-32 32-32zm0 32v32h32V352H384zM128 224c8.8 0 16 7.2 16 16v48h32c26.5 0 48-21.5 48-48c0-16-7.8-30.2-19.9-38.9l-8-5.8c-4.9-3.5-7.4-9.5-6.4-15.5l.4-2.6c1.1-6.7 1.9-11.9 1.9-17.2c0-35.3-28.7-64-64-64s-64 28.7-64 64c0 5.3 .8 10.5 1.9 17.2l.4 2.6c.9 6-1.5 11.9-6.4 15.5l-8 5.8C39.8 209.8 32 224 32 240c0 26.5 21.5 48 48 48h32V240c0-8.8 7.2-16 16-16zm-16 96H80c-44.2 0-80-35.8-80-80c0-26.7 13.1-50.3 33.2-64.9l0 0c-.7-4.7-1.2-9.9-1.2-15.1c0-53 43-96 96-96s96 43 96 96c0 5.2-.5 10.4-1.2 15.1l0 0C242.9 189.7 256 213.3 256 240c0 44.2-35.8 80-80 80H144V496c0 8.8-7.2 16-16 16s-16-7.2-16-16V320z"/></svg>

<svg xmlns="http://www.w3.org/2000/svg" viewBox="0 0 640 512"><!--! Font Awesome Pro 6.1.1 by @fontawesome - https://fontawesome.com License - https://fontawesome.com/license (Commercial License) Copyright 2022 Fonticons, Inc. --><path d="M336 32C327.2 32 320 39.16 320 48V496C320 504.8 312.8 512 304 512C295.2 512 288 504.8 288 496V48C288 21.49 309.5 0 336 0H464C490.5 0 512 21.49 512 48V192H544V112C544 103.2 551.2 96 560 96C568.8 96 576 103.2 576 112V192H592C618.5 192 640 213.5 640 240V496C640 504.8 632.8 512 624 512C615.2 512 608 504.8 608 496V240C608 231.2 600.8 224 592 224H480V48C480 39.16 472.8 32 464 32H336zM416 64C433.7 64 448 78.33 448 96V128C448 145.7 433.7 160 416 160H384C366.3 160 352 145.7 352 128V96C352 78.33 366.3 64 384 64H416zM384 128H416V96H384V128zM480 288C480 270.3 494.3 256 512 256H544C561.7 256 576 270.3 576 288V320C576 337.7 561.7 352 544 352H512C494.3 352 480 337.7 480 320V288zM544 288H512V320H544V288zM544 384C561.7 384 576 398.3 576 416V448C576 465.7 561.7 480 544 480H512C494.3 480 480 465.7 480 448V416C480 398.3 494.3 384 512 384H544zM512 448H544V416H512V448zM352 224C352 206.3 366.3 192 384 192H416C433.7 192 448 206.3 448 224V256C448 273.7 433.7 288 416 288H384C366.3 288 352 273.7 352 256V224zM416 224H384V256H416V224zM416 320C433.7 320 448 334.3 448 352V384C448 401.7 433.7 416 416 416H384C366.3 416 352 401.7 352 384V352C352 334.3 366.3 320 384 320H416zM384 384H416V352H384V384zM144 496C144 504.8 136.8 512 128 512C119.2 512 112 504.8 112 496V320H80C35.82 320 0 284.2 0 240C0 213.3 13.08 189.7 33.18 175.1C32.4 170.2 32 165.1 32 160C32 106.1 74.98 64 128 64C181 64 224 106.1 224 160C224 165.1 223.6 170.2 222.8 175.1C242.9 189.7 256 213.3 256 240C256 284.2 220.2 320 176 320H144V496zM188.1 189.5L191.2 170.1C191.7 166.8 192 163.5 192 160C192 124.7 163.3 96 128 96C92.65 96 64 124.7 64 160C64 163.5 64.27 166.8 64.79 170.1L67.86 189.5L51.93 201.1C39.79 209.8 32 224 32 240C32 266.5 53.49 288 80 288H111.1L112 240C112 231.2 119.2 224 128 224C136.8 224 144 231.2 144 240V288H176C202.5 288 224 266.5 224 240C224 224 216.2 209.8 204.1 201.1L188.1 189.5z"/></svg>
